img/icons/google-plus.svg

<?xml version="1.0" encoding="UTF-8"?>
<svg width="26px" height="20px" viewBox="0 0 26 20" version="1.1" xmlns="http://www.w3.org/2000/svg" xmlns:xlink="http://www.w3.org/1999/xlink">
    <!-- Generator: Sketch 48.2 (47327) - http://www.bohemiancoding.com/sketch -->
    <title>001-google-plus</title>
    <desc>Created with Sketch.</desc>
    <defs></defs>
    <g id="Footer" stroke="none" stroke-width="1" fill="none" fill-rule="evenodd" transform="translate(-1217.000000, -144.000000)" opacity="0.5">
        <g fill="#FFFFFF" fill-rule="nonzero" id="Social-media">
            <g transform="translate(1083.000000, 142.000000)">
                <g id="001-google-plus" transform="translate(134.000000, 2.000000)">
                    <path d="M19.9264597,8.72991727 L10.6274768,8.72991727 L10.6274768,11.7819085 L16.3007891,11.7819085 C15.4544721,14.4352353 12.9373756,16.3598952 9.96317704,16.3598952 C6.29474724,16.3598952 3.32107661,13.4317655 3.32107661,9.81992897 C3.32107661,6.20793655 6.29485282,3.2800147 9.96317704,3.2800147 C11.8104837,3.2800147 13.4813159,4.02271544 14.6852801,5.22115137 L16.935263,2.81315642 C15.1383173,1.07946035 12.6778109,0.0100835568 9.96317704,0.0100835568 C4.4606907,0.0100315797 0,4.40209627 0,9.81992897 C0,15.2377617 4.4606907,19.6299303 9.96322983,19.6299303 C14.7832569,19.6299303 19.0032814,16.2595274 19.9265125,11.7819604 L19.9265125,8.72996925 L19.9264597,8.72991727 Z" id="Shape"></path>
                    <polygon id="Shape" points="25.9648096 8.72471956 24.0627605 8.72471956 24.0627605 6.85193278 22.4323121 6.85193278 22.4323121 8.72471956 20.530263 8.72471956 20.530263 10.3299283 22.4323121 10.3299283 22.4323121 12.202767 24.0627605 12.202767 24.0627605 10.3299283 25.9648096 10.3299283"></polygon>
                </g>
            </g>
        </g>
    </g>
</svg>

<svg xmlns="http://www.w3.org/2000/svg" width="26" height="20" viewBox="0 0 26 20"><path fill="#FFF" d="M19.926 8.73h-9.299v3.052h5.674c-.847 2.653-3.364 4.578-6.338 4.578-3.668 0-6.642-2.928-6.642-6.54s2.974-6.54 6.642-6.54c1.847 0 3.518.743 4.722 1.941l2.25-2.408A10.01 10.01 0 0 0 9.963.01C4.461.01 0 4.402 0 9.82s4.46 9.81 9.963 9.81c4.82 0 9.04-3.37 9.964-7.848V8.73zm6.034-.01h-1.9V6.85h-1.63v1.87h-1.9v1.61h1.9v1.87h1.63v-1.87h1.9z" opacity=".5"/></svg>
